X: 3302
M: 9/8
L: 1/8
K: D
ddd efd cde | fff gef g2e |\
ddd efd cde | fff gec d2 ::\
a |\
aff ged cde | aff gef g2e |\
aff ged cde | fff gec d2 :|



